assets/fc/fc-shop.svg

<svg xmlns="http://www.w3.org/2000/svg" width="100%" height="100%" viewBox="0 0 48 48"><path fill="#CFD8DC" d="M5 19h38v19H5z"/><path fill="#B0BEC5" d="M5 38h38v4H5z"/><path fill="#455A64" d="M27 24h12v18H27z"/><path fill="#E3F2FD" d="M9 24h14v11H9z"/><path fill="#1E88E5" d="M10 25h12v9H10z"/><path fill="#90A4AE" d="M36.5 33.5c-.3 0-.5.2-.5.5v2c0 .3.2.5.5.5s.5-.2.5-.5v-2c0-.3-.2-.5-.5-.5z"/><g fill="#558B2F"><circle cx="24" cy="19" r="3"/><circle cx="36" cy="19" r="3"/><circle cx="12" cy="19" r="3"/></g><path fill="#7CB342" d="M40 6H8c-1.1 0-2 .9-2 2v3h36V8c0-1.1-.9-2-2-2zM21 11h6v8h-6zM37 11h-5l1 8h6zM11 11h5l-1 8H9z"/><g fill="#FFA000"><circle cx="30" cy="19" r="3"/><path d="M45 19c0 1.7-1.3 3-3 3s-3-1.3-3-3 1.3-3 3-3l3 3z"/><circle cx="18" cy="19" r="3"/><path d="M3 19c0 1.7 1.3 3 3 3s3-1.3 3-3-1.3-3-3-3l-3 3z"/></g><g fill="#FFC107"><path d="M32 11h-5v8h6zM42 11h-5l2 8h6zM16 11h5v8h-6zM6 11h5l-2 8H3z"/></g></svg>

<svg xmlns="http://www.w3.org/2000/svg" width="100%" height="100%" viewBox="0 0 48 48"><path fill="#CFD8DC" d="M5 19H43V38H5z"/><path fill="#B0BEC5" d="M5 38H43V42H5z"/><path fill="#455A64" d="M27 24H39V42H27z"/><path fill="#E3F2FD" d="M9 24H23V35H9z"/><path fill="#1E88E5" d="M10 25H22V34H10z"/><path fill="#90A4AE" d="M36.5,33.5c-0.3,0-0.5,0.2-0.5,0.5v2c0,0.3,0.2,0.5,0.5,0.5S37,36.3,37,36v-2C37,33.7,36.8,33.5,36.5,33.5z"/><g fill="#558B2F"><circle cx="24" cy="19" r="3"/><circle cx="36" cy="19" r="3"/><circle cx="12" cy="19" r="3"/></g><path fill="#7CB342" d="M40 6H8C6.9 6 6 6.9 6 8v3h36V8C42 6.9 41.1 6 40 6zM21 11H27V19H21zM37 11L32 11 33 19 39 19zM11 11L16 11 15 19 9 19z"/><g fill="#FFA000"><circle cx="30" cy="19" r="3"/><path d="M45,19c0,1.7-1.3,3-3,3s-3-1.3-3-3s1.3-3,3-3L45,19z"/><circle cx="18" cy="19" r="3"/><path d="M3,19c0,1.7,1.3,3,3,3s3-1.3,3-3s-1.3-3-3-3L3,19z"/></g><g fill="#FFC107"><path d="M32 11L27 11 27 19 33 19zM42 11L37 11 39 19 45 19zM16 11L21 11 21 19 15 19zM6 11L11 11 9 19 3 19z"/></g></svg>
